svgs/sharp-light/bowl-soft-serve.svg

<svg xmlns="http://www.w3.org/2000/svg" viewBox="0 0 512 512"><!--! Font Awesome Pro 6.6.0 by @fontawesome - https://fontawesome.com License - https://fontawesome.com/license (Commercial License) Copyright 2024 Fonticons, Inc. --><path d="M256 0L226.1 0l16.6 24.9 10.8 16.3c1.6 2.4 2.5 5.3 2.5 8.2c0 8.1-6.6 14.7-14.7 14.7l-74.1 0C127.9 64 96 95.9 96 135.2c0 9 1.7 17.6 4.7 25.6C61.9 166.3 32 199.6 32 240l0 64 0 16 16 0 416 0 16 0 0-16 0-64c0-41.2-31.1-75.1-71.2-79.5c4.6-9.5 7.2-20.2 7.2-31.5C416 57.8 358.2 0 287 0L256 0zm32 49.3c0-6-1.1-11.8-3.3-17.3l2.3 0c53.6 0 97 43.4 97 97c0 12.4-5.6 23.5-14.4 31L280 160l-16 0 0 32 16 0 42.4 0 52.6 0 9.1 0 16 0c26.5 0 48 21.5 48 48l0 48L64 288l0-48c0-26.5 21.5-48 48-48l16 0 2 0 38 0 3.2 0 12.8 0 0-32-16 0-31.2 0c-5.5-6.8-8.8-15.4-8.8-24.8c0-21.7 17.6-39.2 39.2-39.2l74.1 0C267.1 96 288 75.1 288 49.3zM32 352c0 53 43 96 96 96l54.1 0-20.4 40.8L150.1 512l25.9 0 160 0 25.9 0-11.6-23.2L329.9 448l54.1 0c53 0 96-43 96-96l-32 0c0 35.3-28.7 64-64 64l-80 0-25.9 0 11.6 23.2L310.1 480l-108.2 0 20.4-40.8L233.9 416 208 416l-80 0c-35.3 0-64-28.7-64-64l-32 0z"/></svg>

<svg xmlns="http://www.w3.org/2000/svg" viewBox="0 0 512 512"><!--! Font Awesome Pro 6.4.0 by @fontawesome - https://fontawesome.com License - https://fontawesome.com/license (Commercial License) Copyright 2023 Fonticons, Inc. --><path d="M256 0H226.1l16.6 24.9 10.8 16.3c1.6 2.4 2.5 5.3 2.5 8.2c0 8.1-6.6 14.7-14.7 14.7H167.2C127.9 64 96 95.9 96 135.2c0 9 1.7 17.6 4.7 25.6C61.9 166.3 32 199.6 32 240v64 16H48 464h16V304 240c0-41.2-31.1-75.1-71.2-79.5c4.6-9.5 7.2-20.2 7.2-31.5C416 57.8 358.2 0 287 0H256zm32 49.3c0-6-1.1-11.8-3.3-17.3H287c53.6 0 97 43.4 97 97c0 12.4-5.6 23.5-14.4 31H280 264v32h16 42.4 52.6H384h16c26.5 0 48 21.5 48 48v48H64V240c0-26.5 21.5-48 48-48h16 2 38 3.2H184V160H168 136.8c-5.5-6.8-8.8-15.4-8.8-24.8c0-21.7 17.6-39.2 39.2-39.2h74.1C267.1 96 288 75.1 288 49.3zM32 352c0 53 43 96 96 96h54.1l-20.4 40.8L150.1 512H176 336h25.9l-11.6-23.2L329.9 448H384c53 0 96-43 96-96H448c0 35.3-28.7 64-64 64H304 278.1l11.6 23.2L310.1 480H201.9l20.4-40.8L233.9 416H208 128c-35.3 0-64-28.7-64-64H32z"/></svg>
